X: 9582
T: David's
R: hornpipe
M: 4/4
K: Gmajor
|:DF|G2 BG FADF|GBdd d2 cB|cea^g afec|Bdgf g2 cA|
GFGD (3EFG (3DEF|GBdd dGBd|ceag adfa|g2 g2 g2:|
|:DC|BdBe d2 dG|FADF G2 dG|FADc BdGB|FADc BdGB|
cBce afec|BABd gedB|AFAd fdcA|GBdB G2:|

